src/assets/images/data-exchange.svg

<svg width="112" height="110" viewBox="0 0 112 110" fill="none" xmlns="http://www.w3.org/2000/svg">
<rect x="10.5254" y="5" width="60.1562" height="40.625" fill="url(#paint0_linear_2466_2205)"/>
<path d="M45.6816 58.9062H105.838V99.5312H45.6816V58.9062Z" fill="url(#paint1_linear_2466_2205)"/>
<path opacity="0.7" d="M75.6728 46.4062C76.4649 46.4064 76.7539 47.4496 76.0748 47.8574L70.8662 50.9824C70.7448 51.0552 70.6058 51.0938 70.4642 51.0938H10.7405C10.5991 51.0937 10.4605 51.0551 10.3392 50.9824L5.13061 47.8574C4.45117 47.4497 4.74032 46.4062 5.53268 46.4062H35.5246V47.9688H46.4621V46.4062H75.6728Z" fill="url(#paint2_linear_2466_2205)"/>
<path opacity="0.7" fill-rule="evenodd" clip-rule="evenodd" d="M104.876 100.312C105.89 100.313 106.26 101.648 105.391 102.17L100.911 104.857C100.756 104.951 100.578 105 100.397 105H48.6065C48.4255 105 48.2481 104.95 48.0928 104.857L43.6133 102.17C42.7437 101.648 43.1138 100.312 44.128 100.312H69.4239V101.875H80.3614V100.312H104.876Z" fill="url(#paint3_linear_2466_2205)"/>
<rect x="35.5254" y="46.4062" width="10.9375" height="1.5625" fill="white"/>
<rect x="69.4239" y="100.312" width="10.9375" height="1.5625" fill="white"/>
<path d="M58.9627 12.0312C80.5363 12.0312 98.0252 29.5201 98.0252 51.0938C98.0252 59.4868 95.3766 67.2606 90.8719 73.6279L90.3103 73.0664C94.6778 66.847 97.2439 59.2706 97.2439 51.0938C97.2439 29.9516 80.1048 12.8125 58.9627 12.8125C50.7857 12.8125 43.2087 15.3778 36.9893 19.7453L36.4277 19.1838C42.7951 14.679 50.5695 12.0312 58.9627 12.0312Z" fill="url(#paint4_linear_2466_2205)"/>
<path d="M37.0879 15.9375L36.6973 19.4531L40.2129 20.2344" stroke="white"/>
<path d="M58.9612 90.0342C37.3875 90.0342 19.8987 72.5453 19.8987 50.9717C19.8987 42.5786 22.5472 34.8048 27.052 28.4375L27.6135 28.999C23.2461 35.2184 20.6799 42.7948 20.6799 50.9717C20.6799 72.1138 37.819 89.2529 58.9612 89.2529C67.1381 89.2529 74.7152 86.6876 80.9346 82.3201L81.4961 82.8816C75.1288 87.3865 67.3543 90.0342 58.9612 90.0342Z" fill="url(#paint5_linear_2466_2205)"/>
<path d="M80.8379 86.1279L81.2285 82.6123L77.7129 81.8311" stroke="white"/>
<defs>
<linearGradient id="paint0_linear_2466_2205" x1="70.6816" y1="25.3125" x2="10.5254" y2="25.3125" gradientUnits="userSpaceOnUse">
<stop stop-color="white"/>
<stop offset="1" stop-color="white" stop-opacity="0"/>
</linearGradient>
<linearGradient id="paint1_linear_2466_2205" x1="105.838" y1="79.2187" x2="45.6816" y2="79.2187" gradientUnits="userSpaceOnUse">
<stop stop-color="white" stop-opacity="0"/>
<stop offset="1" stop-color="white"/>
</linearGradient>
<linearGradient id="paint2_linear_2466_2205" x1="40.6025" y1="46.4063" x2="40.6025" y2="51.0938" gradientUnits="userSpaceOnUse">
<stop stop-color="white"/>
<stop offset="1" stop-color="white" stop-opacity="0"/>
</linearGradient>
<linearGradient id="paint3_linear_2466_2205" x1="74.5019" y1="100.312" x2="74.5019" y2="105" gradientUnits="userSpaceOnUse">
<stop stop-color="white"/>
<stop offset="1" stop-color="white" stop-opacity="0"/>
</linearGradient>
<linearGradient id="paint4_linear_2466_2205" x1="36.3064" y1="19.4531" x2="96.8533" y2="63.5938" gradientUnits="userSpaceOnUse">
<stop stop-color="white"/>
<stop offset="1" stop-color="white" stop-opacity="0"/>
</linearGradient>
<linearGradient id="paint5_linear_2466_2205" x1="81.6174" y1="82.6123" x2="21.0705" y2="38.4717" gradientUnits="userSpaceOnUse">
<stop stop-color="white"/>
<stop offset="1" stop-color="white" stop-opacity="0"/>
</linearGradient>
</defs>
</svg>

<svg xmlns="http://www.w3.org/2000/svg" width="112" height="110" fill="none" viewBox="0 0 112 110"><path fill="url(#a)" d="M10.525 5h60.156v40.625H10.525z"/><path fill="url(#b)" d="M45.682 58.906h60.156v40.625H45.682z"/><path fill="url(#c)" d="M75.673 46.406c.792 0 1.08 1.044.402 1.451l-5.209 3.125a.8.8 0 0 1-.402.112H10.741a.8.8 0 0 1-.402-.112l-5.208-3.125c-.68-.407-.39-1.45.402-1.45h29.992v1.562h10.937v-1.563z" opacity=".7"/><path fill="url(#d)" fill-rule="evenodd" d="M104.876 100.312c1.014.001 1.384 1.336.515 1.858l-4.48 2.687a1 1 0 0 1-.514.143h-51.79a1 1 0 0 1-.514-.143l-4.48-2.687c-.87-.522-.5-1.858.515-1.858h25.296v1.563H80.36v-1.563z" clip-rule="evenodd" opacity=".7"/><path fill="#fff" d="M35.525 46.406h10.938v1.563H35.525zm33.899 53.906h10.938v1.563H69.424z"/><path fill="url(#e)" d="M58.963 12.031c21.573 0 39.062 17.49 39.062 39.063a38.9 38.9 0 0 1-7.153 22.534l-.562-.562a38.1 38.1 0 0 0 6.934-21.972c0-21.142-17.14-38.281-38.281-38.281a38.1 38.1 0 0 0-21.974 6.932l-.561-.561a38.9 38.9 0 0 1 22.535-7.153"/><path stroke="#fff" d="m37.088 15.938-.39 3.515 3.515.781"/><path fill="url(#f)" d="M58.961 90.034c-21.573 0-39.062-17.489-39.062-39.062a38.9 38.9 0 0 1 7.153-22.534l.561.561a38.1 38.1 0 0 0-6.933 21.973c0 21.142 17.139 38.28 38.281 38.28a38.1 38.1 0 0 0 21.974-6.932l.561.562a38.9 38.9 0 0 1-22.535 7.152"/><path stroke="#fff" d="m80.838 86.128.39-3.516-3.515-.78"/><defs><linearGradient id="a" x1="70.682" x2="10.525" y1="25.313" y2="25.313" gradientUnits="userSpaceOnUse"><stop stop-color="#fff"/><stop offset="1" stop-color="#fff" stop-opacity="0"/></linearGradient><linearGradient id="b" x1="105.838" x2="45.682" y1="79.219" y2="79.219" gradientUnits="userSpaceOnUse"><stop stop-color="#fff" stop-opacity="0"/><stop offset="1" stop-color="#fff"/></linearGradient><linearGradient id="c" x1="40.602" x2="40.602" y1="46.406" y2="51.094" gradientUnits="userSpaceOnUse"><stop stop-color="#fff"/><stop offset="1" stop-color="#fff" stop-opacity="0"/></linearGradient><linearGradient id="d" x1="74.502" x2="74.502" y1="100.312" y2="105" gradientUnits="userSpaceOnUse"><stop stop-color="#fff"/><stop offset="1" stop-color="#fff" stop-opacity="0"/></linearGradient><linearGradient id="e" x1="36.306" x2="96.853" y1="19.453" y2="63.594" gradientUnits="userSpaceOnUse"><stop stop-color="#fff"/><stop offset="1" stop-color="#fff" stop-opacity="0"/></linearGradient><linearGradient id="f" x1="81.617" x2="21.07" y1="82.612" y2="38.472" gradientUnits="userSpaceOnUse"><stop stop-color="#fff"/><stop offset="1" stop-color="#fff" stop-opacity="0"/></linearGradient></defs></svg>
